X: 1
T: Michael Dunn's
M: 6/8
L: 1/8
R: jig
K: Dmaj
|: A |d2 A fAA | d2 f agf | e2 B dcB | Ac/d/e fae |
dAA fAA | dAf a2 f | g2 e fed | ecA d2 :|
|: B |AF/G/A GFE | FED DF/E/D | DA,D FAB | =c2 A B2 G |
AFF G2 E | FGA d2 f | gfe f2 d | ec/B/A d2 :|
|: e |dAd =c3 | BAG F2 E | DFF GFG | =C2 E FGA |
df/e/d c3 | BAG A2 f | g2 e fed | ecA d2 :|
